X: 0114
T: Espie McNabb - 8X32J
P: The Dandy Ninth
C: Nan Main
M: 6/8
L: 1/8
R: Jig
B: Miss Milligan's Miscellany v.1 #14
B: 172 RSCDS - LEAD TUNES BOOK
B: 101 Scottish Country Dances #30
Z: 2019 John Chambers <jc:trillian.mit.edu>
K: G
%
D |\
"G"[G3D3B,3] "Em"[G3E3B,3] | "Am"ABc "D7"def | "G"g2d "Em"edB | "Am"A3 A2E |\
"Am"A3 A3 | "G"Bcd "E7"ef^g | "Am"a2b age | "D"d3 "F#/D"d2d |
"Am"e2a "D7"cde | "G"d2g "B/G"B2d | "Am"c2a "B/G"B2G | "Am"A3- "D7"A2D |\
"G"[G3D3B,3] "Em"[G3E3B,3] | "Am"ABc "D7"dea | "D"d'2a "F#/D7"def | "G"g3 "D7"[D3C3] ||
"G"GBd "B/G"dBd | "Am"c2d "D7"e2f | "G"edB "B/G"d2B | "Am"A3 A2E |\
"Am"A2A "Em"Bcd | "Am"ef^g "C#/A7"a2=g | "D"fga "A7"age | "D"d3 d2d |
"Am"cBA ABc | "G"Bcd "B/G"g2g | "G"edB "B/G"g2B | "Am"A3 A2B |\
"Am"cBA "B/G"d2B | "Am"ecA "B/G"f2a | "F#/D"d'2d "D"def | "G"g3 G2 |]
